;FLAVOR:UltiGCode
;TIME:7698
;MATERIAL:3561
;MATERIAL2:0
;Generated with Cura_SteamEngine DEV
;LAYER:0
G0 X116.889 Y123.862 Z0.299
G0 X119.098 Y122.783
;TYPE:SKIRT
G11
G1 F900 X120.608 Y122.202 E0.19350
G1 X121.358 Y121.956 E0.28790
G1 X122.980 Y121.514 E0.48897
G1 X123.786 Y121.340 E0.58759
G1 X124.654 Y121.200 E0.69274
G1 X125.466 Y121.071 E0.79108
G1 X126.272 Y120.985 E0.88802
G1 X127.951 Y120.895 E1.08912
G1 X128.772 Y120.894 E1.18731
G1 X130.416 Y120.979 E1.38419
G1 X131.227 Y121.064 E1.48172
G1 X132.827 Y121.316 E1.67544
G1 X133.603 Y121.479 E1.77027
G1 X135.229 Y121.908 E1.97140
G1 X136.021 Y122.163 E2.07091
G1 X137.590 Y122.762 E2.27177
G1 X138.263 Y123.056 E2.35961
G1 X138.432 Y123.140 E2.38218
G1 X139.846 Y123.860 E2.57196
G1 X140.552 Y124.268 E2.66948
G1 X141.933 Y125.164 E2.86637
G1 X142.595 Y125.644 E2.96416
G1 X144.088 Y126.860 E3.19446
G1 X144.161 Y126.924 E3.20607
G1 X144.534 Y127.274 E3.26724
G1 X145.655 Y128.395 E3.45685
G1 X146.189 Y128.985 E3.55202
G1 X147.249 Y130.287 E3.75282
G1 X147.677 Y130.866 E3.83894
G1 X147.795 Y131.044 E3.86448
G1 X148.659 Y132.375 E4.05427
G1 X149.064 Y133.075 E4.15099
G1 X149.813 Y134.542 E4.34799
G1 X150.148 Y135.294 E4.44645
G1 X150.728 Y136.805 E4.64002
G1 X150.721 Y136.808 E4.64093
G1 X150.857 Y137.156 E4.68562
G1 X150.992 Y137.605 E4.74169
G1 X151.420 Y139.196 E4.93874
G1 X151.590 Y139.986 E5.03539
G1 X151.856 Y141.644 E5.23622
G1 X151.943 Y142.462 E5.33460
G1 X152.033 Y144.141 E5.53570
G1 X152.034 Y144.962 E5.63389
G1 X151.949 Y146.607 E5.83090
G1 X151.866 Y147.408 E5.92721
G1 X151.736 Y148.240 E6.02792
G1 X151.606 Y149.059 E6.12710
G1 X151.440 Y149.842 E6.22283
G1 X151.016 Y151.435 E6.41999
G1 X150.767 Y152.207 E6.51700
G1 X150.169 Y153.776 E6.71782
G1 X149.873 Y154.453 E6.80619
G1 X149.787 Y154.626 E6.82930
G1 X149.066 Y156.040 E7.01913
G1 X148.660 Y156.742 E7.11612
G1 X147.764 Y158.123 E7.31300
G1 X147.286 Y158.782 E7.41037
G1 X146.068 Y160.279 E7.64119
G1 X146.004 Y160.352 E7.65280
G1 X145.654 Y160.725 E7.71397
G1 X144.533 Y161.846 E7.90358
G1 X143.940 Y162.382 E7.99918
G1 X142.638 Y163.441 E8.19991
G1 X142.062 Y163.867 E8.28559
G1 X141.886 Y163.984 E8.31087
G1 X140.556 Y164.848 E8.50055
G1 X139.852 Y165.255 E8.59781
G1 X138.384 Y166.004 E8.79491
G1 X137.636 Y166.337 E8.89284
G1 X136.126 Y166.917 E9.08630
G1 X136.123 Y166.910 E9.08721
G1 X135.773 Y167.047 E9.13216
G1 X135.324 Y167.182 E9.18824
G1 X133.733 Y167.610 E9.38529
G1 X132.942 Y167.780 E9.48205
G1 X131.283 Y168.046 E9.68300
G1 X130.466 Y168.133 E9.78127
G1 X128.787 Y168.223 E9.98236
G1 X127.966 Y168.224 E10.08055
G1 X126.322 Y168.139 E10.27744
G1 X125.521 Y168.056 E10.37375
G1 X124.691 Y167.926 E10.47423
G1 X123.871 Y167.796 E10.57353
G1 X123.086 Y167.630 E10.66949
G1 X121.493 Y167.206 E10.86664
G1 X120.721 Y166.957 E10.96366
G1 X119.152 Y166.359 E11.16448
G1 X118.475 Y166.063 E11.25285
G1 X118.300 Y165.976 E11.27622
G1 X116.887 Y165.255 E11.46595
G1 X116.189 Y164.852 E11.56234
G1 X114.807 Y163.956 E11.75933
G1 X114.146 Y163.477 E11.85696
G1 X112.650 Y162.259 E12.08768
G1 X112.577 Y162.195 E12.09929
G1 X112.204 Y161.845 E12.16047
G1 X111.083 Y160.724 E12.35008
G1 X110.547 Y160.131 E12.44568
G1 X109.487 Y158.828 E12.64657
G1 X109.061 Y158.252 E12.73225
G1 X108.942 Y158.073 E12.75796
G1 X108.079 Y156.743 E12.94758
G1 X107.674 Y156.042 E13.04441
G1 X106.925 Y154.574 E13.24151
G1 X106.592 Y153.826 E13.33944
G1 X106.012 Y152.316 E13.53290
G1 X106.019 Y152.313 E13.53381
G1 X105.882 Y151.963 E13.57876
G1 X105.747 Y151.514 E13.63484
G1 X105.319 Y149.923 E13.83189
G1 X105.153 Y149.153 E13.92609
G1 X105.008 Y148.264 E14.03382
G1 X104.880 Y147.451 E14.13226
G1 X104.796 Y146.656 E14.22787
G1 X104.706 Y144.977 E14.42896
G1 X104.705 Y144.156 E14.52715
G1 X104.790 Y142.512 E14.72404
G1 X104.875 Y141.701 E14.82157
G1 X105.127 Y140.102 E15.01517
G1 X105.290 Y139.326 E15.11000
G1 X105.719 Y137.700 E15.31113
G1 X105.972 Y136.914 E15.40988
G1 X106.570 Y135.344 E15.61081
G1 X106.866 Y134.665 E15.69940
G1 X106.953 Y134.490 E15.72278
G1 X107.674 Y133.077 E15.91250
G1 X108.075 Y132.382 E16.00847
G1 X108.970 Y131.000 E16.20539
G1 X109.454 Y130.333 E16.30395
G1 X110.670 Y128.840 E16.53424
G1 X110.734 Y128.767 E16.54586
G1 X111.084 Y128.394 E16.60703
G1 X112.205 Y127.273 E16.79664
G1 X112.795 Y126.739 E16.89181
G1 X114.097 Y125.679 E17.09261
G1 X114.676 Y125.251 E17.17873
G1 X114.854 Y125.133 E17.20427
G1 X116.185 Y124.269 E17.39405
G1 X116.889 Y123.862 E17.49131
G1 X118.356 Y123.114 E17.68825
G1 X119.098 Y122.783 E17.78543
G0 F9000 X121.463 Y122.342
G1 F900 X123.085 Y121.900 E17.98649
G1 X123.849 Y121.735 E18.07997
G1 X124.717 Y121.595 E18.18513
G1 X125.529 Y121.466 E18.28346
G1 X126.294 Y121.385 E18.37547
G1 X127.973 Y121.295 E18.57656
G1 X128.751 Y121.294 E18.66961
G1 X130.395 Y121.379 E18.86650
G1 X131.164 Y121.459 E18.95896
G1 X132.764 Y121.711 E19.15268
G1 X133.501 Y121.866 E19.24276
G1 X135.127 Y122.295 E19.44388
G1 X135.878 Y122.537 E19.53825
G1 X137.447 Y123.136 E19.73911
G1 X138.086 Y123.415 E19.82250
G1 X138.251 Y123.497 E19.84454
G1 X139.665 Y124.217 E20.03432
G1 X140.335 Y124.603 E20.12680
G1 X141.716 Y125.499 E20.32368
G1 X142.343 Y125.955 E20.41640
G1 X143.824 Y127.161 E20.64483
G1 X143.897 Y127.225 E20.65644
G1 X144.252 Y127.556 E20.71449
G1 X145.373 Y128.677 E20.90410
G1 X145.879 Y129.238 E20.99445
G1 X146.939 Y130.540 E21.19525
G1 X147.345 Y131.089 E21.27692
G1 X147.460 Y131.262 E21.30176
G1 X148.324 Y132.593 E21.49155
G1 X148.708 Y133.257 E21.58329
G1 X149.457 Y134.724 E21.78029
G1 X149.775 Y135.437 E21.87366
G1 X150.355 Y136.948 E22.06723
G1 X150.347 Y136.951 E22.06825
G1 X150.484 Y137.302 E22.11332
G1 X150.606 Y137.709 E22.16413
G1 X151.034 Y139.300 E22.36118
G1 X151.195 Y140.050 E22.45293
G1 X151.461 Y141.708 E22.65376
G1 X151.543 Y142.484 E22.74708
G1 X151.633 Y144.163 E22.94818
G1 X151.634 Y144.941 E23.04123
G1 X151.549 Y146.586 E23.23823
G1 X151.470 Y147.346 E23.32962
G1 X151.341 Y148.177 E23.43020
G1 X151.211 Y148.996 E23.52938
G1 X151.053 Y149.739 E23.62023
G1 X150.629 Y151.332 E23.81738
G1 X150.393 Y152.064 E23.90937
G1 X149.795 Y153.633 E24.11019
G1 X149.514 Y154.276 E24.19411
G1 X149.430 Y154.444 E24.21658
G1 X148.709 Y155.858 E24.40641
G1 X148.325 Y156.525 E24.49846
G1 X147.429 Y157.906 E24.69534
G1 X146.975 Y158.531 E24.78773
G1 X145.767 Y160.015 E25.01659
G1 X145.703 Y160.088 E25.02820
G1 X145.372 Y160.443 E25.08625
G1 X144.251 Y161.564 E25.27586
G1 X143.687 Y162.072 E25.36664
G1 X142.385 Y163.131 E25.56736
G1 X141.839 Y163.535 E25.64860
G1 X141.668 Y163.649 E25.67318
G1 X140.338 Y164.513 E25.86286
G1 X139.670 Y164.899 E25.95513
G1 X138.202 Y165.648 E26.15224
G1 X137.492 Y165.964 E26.24519
G1 X135.982 Y166.544 E26.43865
G1 X135.979 Y166.536 E26.43967
G1 X135.627 Y166.674 E26.48489
G1 X135.220 Y166.796 E26.53570
G1 X133.629 Y167.224 E26.73275
G1 X132.879 Y167.385 E26.82450
G1 X131.220 Y167.651 E27.02545
G1 X130.444 Y167.733 E27.11877
G1 X128.765 Y167.823 E27.31987
G1 X127.987 Y167.824 E27.41292
G1 X126.343 Y167.739 E27.60980
G1 X125.583 Y167.660 E27.70119
G1 X124.753 Y167.531 E27.80165
G1 X123.933 Y167.401 E27.90095
G1 X123.189 Y167.243 E27.99191
G1 X121.596 Y166.819 E28.18907
G1 X120.864 Y166.583 E28.28105
G1 X119.295 Y165.985 E28.48187
G1 X118.652 Y165.704 E28.56580
G1 X118.482 Y165.619 E28.58853
G1 X117.069 Y164.898 E28.77825
G1 X116.406 Y164.516 E28.86977
G1 X115.024 Y163.620 E29.06676
G1 X114.398 Y163.166 E29.15924
G1 X112.914 Y161.958 E29.38810
G1 X112.841 Y161.894 E29.39971
G1 X112.486 Y161.563 E29.45776
G1 X111.365 Y160.442 E29.64737
G1 X110.858 Y159.879 E29.73798
G1 X109.798 Y158.576 E29.93887
G1 X109.393 Y158.029 E30.02027
G1 X109.277 Y157.855 E30.04528
G1 X108.414 Y156.525 E30.23490
G1 X108.030 Y155.860 E30.32675
G1 X107.281 Y154.392 E30.52385
G1 X106.965 Y153.682 E30.61680
G1 X106.385 Y152.172 E30.81026
G1 X106.393 Y152.169 E30.81128
G1 X106.255 Y151.817 E30.85650
G1 X106.133 Y151.410 E30.90732
G1 X105.705 Y149.819 E31.10436
G1 X105.548 Y149.088 E31.19379
G1 X105.403 Y148.202 E31.30116
G1 X105.275 Y147.389 E31.39959
G1 X105.196 Y146.634 E31.49038
G1 X105.106 Y144.955 E31.69148
G1 X105.105 Y144.177 E31.78453
G1 X105.190 Y142.533 E31.98142
G1 X105.270 Y141.763 E32.07400
G1 X105.522 Y140.164 E32.26760
G1 X105.677 Y139.428 E32.35756
G1 X106.106 Y137.802 E32.55868
G1 X106.346 Y137.056 E32.65241
G1 X106.944 Y135.486 E32.85334
G1 X107.225 Y134.842 E32.93738
G1 X107.310 Y134.672 E32.96011
G1 X108.031 Y133.259 E33.14983
G1 X108.411 Y132.600 E33.24081
G1 X109.306 Y131.218 E33.43773
G1 X109.765 Y130.585 E33.53125
G1 X110.971 Y129.104 E33.75968
G1 X111.035 Y129.031 E33.77129
G1 X111.366 Y128.676 E33.82934
G1 X112.487 Y127.555 E34.01894
G1 X113.048 Y127.049 E34.10930
G1 X114.350 Y125.989 E34.31010
G1 X114.899 Y125.583 E34.39176
G1 X115.072 Y125.468 E34.41661
G1 X116.403 Y124.604 E34.60640
G1 X117.071 Y124.219 E34.69861
G1 X118.538 Y123.471 E34.89555
G1 X119.242 Y123.157 E34.98775
G1 X120.752 Y122.576 E35.18125
G1 X121.463 Y122.342 E35.27077
G0 F9000 X123.913 Y122.130
G1 F900 X124.780 Y121.990 E35.37581
G1 X125.592 Y121.861 E35.47414
G1 X126.315 Y121.784 E35.56110
G1 X127.994 Y121.694 E35.76220
G1 X128.730 Y121.693 E35.85022
G1 X130.374 Y121.778 E36.04711
G1 X131.102 Y121.854 E36.13465
G1 X132.702 Y122.106 E36.32837
G1 X133.399 Y122.253 E36.41356
G1 X135.025 Y122.682 E36.61469
G1 X135.736 Y122.910 E36.70399
G1 X137.305 Y123.509 E36.90485
G1 X137.909 Y123.773 E36.98369
G1 X138.069 Y123.853 E37.00508
G1 X139.483 Y124.573 E37.19486
G1 X140.117 Y124.939 E37.28241
G1 X141.498 Y125.835 E37.47930
G1 X142.091 Y126.265 E37.56691
G1 X143.561 Y127.461 E37.79356
G1 X143.634 Y127.525 E37.80517
G1 X143.969 Y127.839 E37.86008
G1 X145.090 Y128.960 E38.04969
G1 X145.568 Y129.491 E38.13514
G1 X146.628 Y130.793 E38.33594
G1 X147.013 Y131.312 E38.41322
G1 X147.124 Y131.480 E38.43731
G1 X147.988 Y132.811 E38.62709
G1 X148.351 Y133.439 E38.71385
G1 X149.100 Y134.906 E38.91084
G1 X149.401 Y135.580 E38.99913
G1 X149.981 Y137.091 E39.19270
G1 X149.974 Y137.094 E39.19361
G1 X150.111 Y137.447 E39.23890
G1 X150.220 Y137.813 E39.28457
G1 X150.648 Y139.404 E39.48162
G1 X150.800 Y140.113 E39.56834
G1 X151.066 Y141.771 E39.76918
G1 X151.144 Y142.505 E39.85746
G1 X151.234 Y144.184 E40.05855
G1 X151.235 Y144.920 E40.14658
G1 X151.150 Y146.565 E40.34358
G1 X151.075 Y147.284 E40.43004
G1 X150.945 Y148.114 E40.53052
G1 X150.815 Y148.933 E40.62970
G1 X150.666 Y149.636 E40.71565
G1 X150.242 Y151.229 E40.91280
G1 X150.019 Y151.922 E40.99987
G1 X149.421 Y153.491 E41.20069
G1 X149.156 Y154.099 E41.28001
G1 X149.074 Y154.263 E41.30194
G1 X148.353 Y155.677 E41.49177
G1 X147.989 Y156.307 E41.57879
G1 X147.093 Y157.688 E41.77568
G1 X146.664 Y158.279 E41.86302
G1 X145.467 Y159.752 E42.09003
G1 X145.403 Y159.825 E42.10164
G1 X145.089 Y160.160 E42.15655
G1 X143.968 Y161.281 E42.34616
G1 X143.435 Y161.762 E42.43203
G1 X142.133 Y162.821 E42.63275
G1 X141.616 Y163.203 E42.70963
G1 X141.450 Y163.313 E42.73345
G1 X140.120 Y164.177 E42.92313
G1 X139.488 Y164.542 E43.01042
G1 X138.020 Y165.291 E43.20753
G1 X137.349 Y165.591 E43.29543
G1 X135.839 Y166.171 E43.48889
G1 X135.836 Y166.163 E43.48992
G1 X135.482 Y166.301 E43.53536
G1 X135.116 Y166.410 E43.58103
G1 X133.525 Y166.838 E43.77808
G1 X132.815 Y166.990 E43.86492
G1 X131.156 Y167.256 E44.06587
G1 X130.423 Y167.334 E44.15403
G1 X128.744 Y167.424 E44.35513
G1 X128.008 Y167.425 E44.44315
G1 X126.364 Y167.340 E44.64004
G1 X125.645 Y167.265 E44.72650
G1 X124.816 Y167.136 E44.82684
G1 X123.996 Y167.006 E44.92614
G1 X123.292 Y166.856 E45.01223
G1 X121.699 Y166.432 E45.20938
G1 X121.006 Y166.209 E45.29645
G1 X119.437 Y165.611 E45.49727
G1 X118.829 Y165.346 E45.57659
G1 X118.663 Y165.263 E45.59879
G1 X117.250 Y164.542 E45.78851
G1 X116.624 Y164.181 E45.87494
G1 X115.242 Y163.285 E46.07193
G1 X114.649 Y162.855 E46.15953
G1 X113.177 Y161.658 E46.38645
G1 X113.104 Y161.594 E46.39806
G1 X112.769 Y161.280 E46.45297
G1 X111.648 Y160.159 E46.64258
G1 X111.168 Y159.626 E46.72836
G1 X110.108 Y158.323 E46.92926
G1 X109.725 Y157.806 E47.00621
G1 X109.613 Y157.637 E47.03046
G1 X108.750 Y156.307 E47.22008
G1 X108.387 Y155.678 E47.30693
G1 X107.638 Y154.210 E47.50404
G1 X107.338 Y153.539 E47.59195
G1 X106.758 Y152.029 E47.78541
G1 X106.766 Y152.026 E47.78643
G1 X106.628 Y151.672 E47.83187
G1 X106.519 Y151.306 E47.87754
G1 X106.091 Y149.715 E48.07459
G1 X105.942 Y149.024 E48.15914
G1 X105.798 Y148.140 E48.26626
G1 X105.670 Y147.327 E48.36469
G1 X105.595 Y146.613 E48.45055
G1 X105.505 Y144.934 E48.65165
G1 X105.504 Y144.198 E48.73967
G1 X105.589 Y142.554 E48.93656
G1 X105.665 Y141.825 E49.02422
G1 X105.917 Y140.226 E49.21782
G1 X106.064 Y139.530 E49.30290
G1 X106.493 Y137.904 E49.50402
G1 X106.719 Y137.198 E49.59268
G1 X107.317 Y135.628 E49.79361
G1 X107.583 Y135.019 E49.87309
G1 X107.666 Y134.853 E49.89529
G1 X108.387 Y133.440 E50.08502
G1 X108.746 Y132.817 E50.17101
G1 X109.641 Y131.435 E50.36793
G1 X110.075 Y130.837 E50.45630
G1 X111.271 Y129.367 E50.68296
G1 X111.335 Y129.294 E50.69457
G1 X111.649 Y128.959 E50.74948
G1 X112.770 Y127.838 E50.93909
G1 X113.301 Y127.360 E51.02454
G1 X114.603 Y126.300 E51.22534
G1 X115.122 Y125.915 E51.30262
G1 X115.290 Y125.804 E51.32670
G1 X116.621 Y124.940 E51.51649
G1 X117.252 Y124.575 E51.60367
G1 X118.719 Y123.827 E51.80062
G1 X119.385 Y123.530 E51.88783
G1 X120.895 Y122.949 E52.08134
G1 X121.569 Y122.728 E52.16617
G1 X123.191 Y122.286 E52.36723
G1 X123.913 Y122.130 E52.45558
G0 F9000 X126.337 Y122.183
G1 F900 X128.016 Y122.093 E52.65668
G1 X128.710 Y122.093 E52.73968
G1 X130.354 Y122.178 E52.93656
G1 X131.040 Y122.249 E53.01905
G1 X132.640 Y122.501 E53.21277
G1 X133.297 Y122.639 E53.29306
G1 X134.923 Y123.068 E53.49418
G1 X135.593 Y123.284 E53.57837
G1 X137.162 Y123.883 E53.77924
G1 X137.732 Y124.132 E53.85363
G1 X137.888 Y124.210 E53.87449
G1 X139.302 Y124.930 E54.06427
G1 X139.899 Y125.274 E54.14667
G1 X141.280 Y126.170 E54.34356
G1 X141.840 Y126.576 E54.42628
G1 X143.297 Y127.762 E54.65097
G1 X143.370 Y127.826 E54.66259
G1 X143.686 Y128.122 E54.71437
G1 X144.807 Y129.243 E54.90398
G1 X145.258 Y129.743 E54.98451
G1 X146.318 Y131.045 E55.18531
G1 X146.681 Y131.535 E55.25824
G1 X146.789 Y131.697 E55.28153
G1 X147.653 Y133.028 E55.47131
G1 X147.995 Y133.621 E55.55319
G1 X148.744 Y135.088 E55.75019
G1 X149.028 Y135.724 E55.83349
G1 X149.608 Y137.235 E56.02706
G1 X149.592 Y137.241 E56.02911
G1 X149.833 Y137.916 E56.11483
G1 X150.261 Y139.507 E56.31188
G1 X150.405 Y140.177 E56.39384
G1 X150.671 Y141.835 E56.59467
G1 X150.745 Y142.527 E56.67791
G1 X150.835 Y144.206 E56.87900
G1 X150.835 Y144.900 E56.96200
G1 X150.750 Y146.545 E57.15901
G1 X150.680 Y147.223 E57.24053
G1 X150.550 Y148.052 E57.34089
G1 X150.420 Y148.871 E57.44007
G1 X150.280 Y149.534 E57.52111
G1 X149.856 Y151.127 E57.71827
G1 X149.645 Y151.780 E57.80034
G1 X149.047 Y153.349 E58.00116
G1 X148.797 Y153.922 E58.07593
G1 X148.718 Y154.081 E58.09717
G1 X147.997 Y155.495 E58.28700
G1 X147.654 Y156.089 E58.36903
G1 X146.758 Y157.470 E58.56592
G1 X146.353 Y158.028 E58.64838
G1 X145.166 Y159.488 E58.87342
G1 X145.102 Y159.561 E58.88503
G1 X144.806 Y159.877 E58.93682
G1 X143.685 Y160.998 E59.12643
G1 X143.183 Y161.451 E59.20730
G1 X141.881 Y162.510 E59.40802
G1 X141.393 Y162.871 E59.48062
G1 X141.232 Y162.978 E59.50374
G1 X139.902 Y163.842 E59.69342
G1 X139.307 Y164.186 E59.77562
G1 X137.839 Y164.935 E59.97273
G1 X137.206 Y165.217 E60.05561
G1 X135.696 Y165.797 E60.24907
G1 X135.690 Y165.781 E60.25111
G1 X135.013 Y166.023 E60.33710
G1 X133.422 Y166.451 E60.53415
G1 X132.752 Y166.595 E60.61611
G1 X131.093 Y166.861 E60.81706
G1 X130.401 Y166.935 E60.90030
G1 X128.722 Y167.025 E61.10139
G1 X128.028 Y167.025 E61.18439
G1 X126.384 Y166.940 E61.38128
G1 X125.706 Y166.870 E61.46280
G1 X124.879 Y166.741 E61.56290
G1 X124.059 Y166.611 E61.66220
G1 X123.394 Y166.470 E61.74350
G1 X121.801 Y166.046 E61.94066
G1 X121.148 Y165.835 E62.02273
G1 X119.579 Y165.237 E62.22355
G1 X119.006 Y164.987 E62.29832
G1 X118.845 Y164.907 E62.31983
G1 X117.432 Y164.186 E62.50955
G1 X116.842 Y163.845 E62.59105
G1 X115.460 Y162.949 E62.78804
