;FLAVOR:UltiGCode
;TIME:7238
;MATERIAL:3626
;MATERIAL2:0
;Generated with Cura_SteamEngine DEV
;LAYER:0
M107
G0 F9000 X97.613 Y96.448 Z0.299
G0 X99.384 Y94.721
;TYPE:SKIRT
G1 F900 X100.670 Y93.669 E0.19871
G1 X101.328 Y93.186 E0.29634
G1 X102.717 Y92.274 E0.49507
G1 X103.425 Y91.860 E0.59316
G1 X104.946 Y91.077 E0.79776
G1 X105.015 Y91.042 E0.80701
G1 X105.748 Y90.717 E0.90291
G1 X107.196 Y90.161 E1.08842
G1 X107.196 Y90.160 E1.08854
G1 X107.268 Y90.132 E1.09778
G1 X108.076 Y89.868 E1.19944
G1 X109.606 Y89.458 E1.38889
G1 X110.372 Y89.293 E1.48260
G1 X112.012 Y89.026 E1.68133
G1 X112.026 Y89.024 E1.68302
G1 X112.937 Y88.922 E1.79266
G1 X114.476 Y88.842 E1.97697
G1 X114.495 Y88.841 E1.97924
G1 X114.500 Y88.841 E1.97984
G1 X114.519 Y88.840 E1.98212
G1 X114.519 Y88.841 E1.98224
G1 X115.409 Y88.836 E2.08868
G1 X116.991 Y88.919 E2.27815
G1 X117.064 Y88.923 E2.28689
G1 X117.875 Y89.007 E2.38441
G1 X119.539 Y89.271 E2.58591
G1 X119.615 Y89.284 E2.59513
G1 X120.319 Y89.438 E2.68132
G1 X121.849 Y89.848 E2.87077
G1 X122.590 Y90.087 E2.96389
G1 X124.211 Y90.700 E3.17116
G1 X124.283 Y90.728 E3.18040
G1 X124.995 Y91.047 E3.27371
G1 X126.397 Y91.761 E3.46188
G1 X126.466 Y91.796 E3.47113
G1 X127.185 Y92.210 E3.57036
G1 X128.514 Y93.073 E3.75988
G1 X128.564 Y93.106 E3.76705
G1 X129.240 Y93.596 E3.86690
G1 X130.471 Y94.593 E4.05636
G1 X131.052 Y95.113 E4.14962
G1 X132.232 Y96.282 E4.34827
G1 X132.779 Y96.884 E4.44556
G1 X133.831 Y98.170 E4.64427
G1 X134.314 Y98.828 E4.74189
G1 X135.226 Y100.217 E4.94062
G1 X135.640 Y100.925 E5.03871
G1 X136.423 Y102.446 E5.24332
G1 X136.458 Y102.515 E5.25257
G1 X136.783 Y103.248 E5.34847
G1 X137.339 Y104.696 E5.53397
G1 X137.340 Y104.696 E5.53409
G1 X137.368 Y104.768 E5.54333
G1 X137.632 Y105.576 E5.64500
G1 X138.042 Y107.106 E5.83444
G1 X138.207 Y107.872 E5.92816
G1 X138.473 Y109.507 E6.12627
G1 X138.476 Y109.526 E6.12857
G1 X138.578 Y110.437 E6.23821
G1 X138.660 Y112.019 E6.42767
G1 X138.659 Y112.019 E6.42779
G1 X138.664 Y112.909 E6.53424
G1 X138.581 Y114.491 E6.72371
G1 X138.577 Y114.564 E6.73245
G1 X138.493 Y115.375 E6.82996
G1 X138.229 Y117.039 E7.03147
G1 X138.216 Y117.115 E7.04069
G1 X138.062 Y117.819 E7.12688
G1 X137.652 Y119.349 E7.31632
G1 X137.413 Y120.090 E7.40944
G1 X136.800 Y121.711 E7.61671
G1 X136.772 Y121.783 E7.62595
G1 X136.453 Y122.495 E7.71926
G1 X135.734 Y123.907 E7.90877
G1 X135.704 Y123.966 E7.91669
G1 X135.290 Y124.685 E8.01592
G1 X134.427 Y126.014 E8.20544
G1 X134.394 Y126.064 E8.21260
G1 X133.904 Y126.740 E8.31246
G1 X132.907 Y127.971 E8.50192
G1 X132.387 Y128.552 E8.59517
G1 X131.218 Y129.732 E8.79383
G1 X130.616 Y130.279 E8.89111
G1 X129.330 Y131.331 E9.08982
G1 X128.672 Y131.814 E9.18744
G1 X127.283 Y132.726 E9.38618
G1 X126.575 Y133.140 E9.48427
G1 X125.054 Y133.923 E9.68887
G1 X124.985 Y133.958 E9.69812
G1 X124.252 Y134.283 E9.79402
G1 X122.804 Y134.839 E9.97953
G1 X122.804 Y134.840 E9.97965
G1 X122.732 Y134.868 E9.98889
G1 X121.924 Y135.132 E10.09055
G1 X120.394 Y135.542 E10.28000
G1 X119.628 Y135.707 E10.37371
G1 X117.988 Y135.974 E10.57244
G1 X117.974 Y135.976 E10.57413
G1 X117.066 Y136.077 E10.68340
G1 X115.159 Y136.172 E10.91176
G1 X115.098 Y136.173 E10.91905
G1 X114.566 Y136.164 E10.98269
G1 X112.983 Y136.082 E11.17227
G1 X112.186 Y135.999 E11.26811
G1 X110.461 Y135.729 E11.47693
G1 X110.385 Y135.716 E11.48615
G1 X109.681 Y135.562 E11.57234
G1 X108.151 Y135.152 E11.76178
G1 X107.410 Y134.913 E11.85490
G1 X105.789 Y134.300 E12.06217
G1 X105.717 Y134.272 E12.07141
G1 X105.005 Y133.953 E12.16472
G1 X103.593 Y133.234 E12.35423
G1 X103.534 Y133.204 E12.36215
G1 X102.815 Y132.790 E12.46138
G1 X101.486 Y131.927 E12.65090
G1 X101.436 Y131.894 E12.65806
G1 X100.760 Y131.404 E12.75792
G1 X99.529 Y130.407 E12.94738
G1 X98.948 Y129.887 E13.04063
G1 X97.768 Y128.718 E13.23929
G1 X97.221 Y128.116 E13.33657
G1 X96.169 Y126.830 E13.53528
G1 X95.686 Y126.172 E13.63291
G1 X94.774 Y124.783 E13.83164
G1 X94.360 Y124.075 E13.92973
G1 X93.577 Y122.554 E14.13433
G1 X93.542 Y122.485 E14.14358
G1 X93.217 Y121.752 E14.23948
G1 X92.661 Y120.304 E14.42499
G1 X92.660 Y120.304 E14.42511
G1 X92.632 Y120.232 E14.43435
G1 X92.368 Y119.424 E14.53601
G1 X91.958 Y117.894 E14.72546
G1 X91.793 Y117.128 E14.81917
G1 X91.526 Y115.488 E15.01790
G1 X91.524 Y115.474 E15.01959
G1 X91.422 Y114.563 E15.12923
G1 X91.340 Y112.981 E15.31869
G1 X91.341 Y112.981 E15.31881
G1 X91.336 Y112.091 E15.42525
G1 X91.419 Y110.509 E15.61472
G1 X91.423 Y110.436 E15.62346
G1 X91.507 Y109.625 E15.72098
G1 X91.771 Y107.961 E15.92248
G1 X91.784 Y107.885 E15.93170
G1 X91.938 Y107.181 E16.01789
G1 X92.348 Y105.651 E16.20734
G1 X92.587 Y104.910 E16.30046
G1 X93.200 Y103.289 E16.50773
G1 X93.228 Y103.217 E16.51697
G1 X93.547 Y102.505 E16.61028
G1 X94.266 Y101.093 E16.79979
G1 X94.296 Y101.034 E16.80770
G1 X94.710 Y100.315 E16.90693
G1 X95.573 Y98.986 E17.09645
G1 X95.606 Y98.936 E17.10362
G1 X96.096 Y98.260 E17.20347
G1 X97.093 Y97.029 E17.39293
G1 X97.613 Y96.448 E17.48619
G1 X98.782 Y95.268 E17.68484
G1 X99.384 Y94.721 E17.78213
G0 F9000 X101.547 Y93.520
G1 F900 X102.936 Y92.608 E17.98086
G1 X103.609 Y92.216 E18.07401
G1 X105.127 Y91.433 E18.27829
G1 X105.196 Y91.398 E18.28754
G1 X105.891 Y91.090 E18.37846
G1 X107.341 Y90.533 E18.56424
G1 X107.413 Y90.505 E18.57348
G1 X108.180 Y90.254 E18.67000
G1 X109.710 Y89.844 E18.85944
G1 X110.436 Y89.688 E18.94825
G1 X112.065 Y89.423 E19.14564
G1 X112.093 Y89.418 E19.14904
G1 X112.958 Y89.322 E19.25313
G1 X114.517 Y89.241 E19.43984
G1 X114.521 Y89.241 E19.44032
G1 X114.540 Y89.240 E19.44259
G1 X114.540 Y89.241 E19.44271
G1 X115.388 Y89.235 E19.54414
G1 X116.970 Y89.318 E19.73360
G1 X117.043 Y89.322 E19.74235
G1 X117.813 Y89.402 E19.83494
G1 X119.472 Y89.665 E20.03583
G1 X119.548 Y89.678 E20.04505
G1 X120.215 Y89.824 E20.12671
G1 X121.745 Y90.234 E20.31616
G1 X122.449 Y90.461 E20.40463
G1 X124.066 Y91.073 E20.61141
G1 X124.138 Y91.101 E20.62065
G1 X124.814 Y91.404 E20.70925
G1 X126.216 Y92.118 E20.89742
G1 X126.216 Y92.117 E20.89754
G1 X126.285 Y92.152 E20.90679
G1 X126.967 Y92.546 E21.00099
G1 X128.282 Y93.400 E21.18852
G1 X128.347 Y93.442 E21.19778
G1 X128.988 Y93.906 E21.29242
G1 X130.219 Y94.903 E21.48188
G1 X130.770 Y95.397 E21.57038
G1 X131.950 Y96.566 E21.76904
G1 X132.470 Y97.138 E21.86149
G1 X133.522 Y98.424 E22.06021
G1 X133.980 Y99.047 E22.15269
G1 X134.892 Y100.436 E22.35142
G1 X135.284 Y101.109 E22.44457
G1 X136.067 Y102.627 E22.64885
G1 X136.102 Y102.696 E22.65810
G1 X136.410 Y103.391 E22.74902
G1 X136.967 Y104.841 E22.93480
G1 X136.995 Y104.913 E22.94404
G1 X137.246 Y105.680 E23.04056
G1 X137.656 Y107.210 E23.23000
G1 X137.812 Y107.936 E23.31881
G1 X138.069 Y109.517 E23.51038
G1 X138.082 Y109.593 E23.51960
G1 X138.178 Y110.458 E23.62369
G1 X138.260 Y112.040 E23.81315
G1 X138.259 Y112.040 E23.81327
G1 X138.265 Y112.888 E23.91470
G1 X138.182 Y114.470 E24.10416
G1 X138.178 Y114.543 E24.11291
G1 X138.098 Y115.313 E24.20550
G1 X137.835 Y116.972 E24.40639
G1 X137.822 Y117.048 E24.41561
G1 X137.676 Y117.715 E24.49727
G1 X137.266 Y119.245 E24.68672
G1 X137.039 Y119.949 E24.77519
G1 X136.427 Y121.566 E24.98197
G1 X136.399 Y121.638 E24.99121
G1 X136.096 Y122.314 E25.07981
G1 X135.382 Y123.716 E25.26798
G1 X135.383 Y123.716 E25.26810
G1 X135.348 Y123.785 E25.27735
G1 X134.954 Y124.467 E25.37155
G1 X134.091 Y125.796 E25.56107
G1 X134.058 Y125.847 E25.56834
G1 X133.594 Y126.488 E25.66298
G1 X132.597 Y127.719 E25.85244
G1 X132.103 Y128.270 E25.94094
G1 X130.934 Y129.450 E26.13960
G1 X130.362 Y129.970 E26.23205
G1 X129.076 Y131.022 E26.43077
G1 X128.453 Y131.480 E26.52325
G1 X127.064 Y132.392 E26.72198
G1 X126.391 Y132.784 E26.81513
G1 X124.873 Y133.567 E27.01941
G1 X124.804 Y133.602 E27.02866
G1 X124.109 Y133.910 E27.11958
G1 X122.659 Y134.467 E27.30536
G1 X122.587 Y134.495 E27.31460
G1 X121.820 Y134.746 E27.41112
G1 X120.290 Y135.156 E27.60056
G1 X119.564 Y135.312 E27.68937
G1 X117.935 Y135.577 E27.88676
G1 X117.907 Y135.582 E27.89016
G1 X117.045 Y135.678 E27.99390
G1 X115.152 Y135.772 E28.22058
G1 X115.091 Y135.773 E28.22787
G1 X114.587 Y135.764 E28.28816
G1 X113.004 Y135.682 E28.47774
G1 X112.248 Y135.604 E28.56864
G1 X110.528 Y135.335 E28.77685
G1 X110.452 Y135.322 E28.78608
G1 X109.785 Y135.176 E28.86774
G1 X108.255 Y134.766 E29.05718
G1 X107.551 Y134.539 E29.14565
G1 X105.934 Y133.927 E29.35243
G1 X105.862 Y133.899 E29.36167
G1 X105.186 Y133.596 E29.45027
G1 X103.784 Y132.882 E29.63844
G1 X103.784 Y132.883 E29.63856
G1 X103.715 Y132.848 E29.64781
G1 X103.033 Y132.454 E29.74201
G1 X101.704 Y131.591 E29.93153
G1 X101.653 Y131.558 E29.93880
G1 X101.012 Y131.094 E30.03344
G1 X99.781 Y130.097 E30.22290
G1 X99.230 Y129.603 E30.31141
G1 X98.050 Y128.434 E30.51006
G1 X97.530 Y127.862 E30.60252
G1 X96.478 Y126.576 E30.80123
G1 X96.020 Y125.953 E30.89371
G1 X95.108 Y124.564 E31.09244
G1 X94.716 Y123.891 E31.18559
G1 X93.933 Y122.373 E31.38987
G1 X93.898 Y122.304 E31.39913
G1 X93.590 Y121.609 E31.49005
G1 X93.022 Y120.130 E31.67953
G1 X93.005 Y120.087 E31.68506
G1 X92.754 Y119.320 E31.78158
G1 X92.344 Y117.790 E31.97102
G1 X92.188 Y117.064 E32.05984
G1 X91.921 Y115.424 E32.25856
G1 X91.918 Y115.407 E32.26063
G1 X91.822 Y114.542 E32.36472
G1 X91.740 Y112.960 E32.55418
G1 X91.741 Y112.960 E32.55430
G1 X91.735 Y112.112 E32.65572
G1 X91.818 Y110.530 E32.84519
G1 X91.822 Y110.457 E32.85393
G1 X91.902 Y109.687 E32.94652
G1 X92.165 Y108.028 E33.14741
G1 X92.178 Y107.952 E33.15664
G1 X92.324 Y107.285 E33.23830
G1 X92.734 Y105.755 E33.42774
G1 X92.961 Y105.051 E33.51621
G1 X93.573 Y103.434 E33.72299
G1 X93.601 Y103.362 E33.73223
G1 X93.904 Y102.686 E33.82083
G1 X94.618 Y101.284 E34.00900
G1 X94.617 Y101.284 E34.00912
G1 X94.652 Y101.215 E34.01837
G1 X95.046 Y100.533 E34.11257
G1 X95.909 Y99.204 E34.30209
G1 X95.942 Y99.153 E34.30936
G1 X96.406 Y98.512 E34.40400
G1 X97.403 Y97.281 E34.59346
G1 X97.897 Y96.730 E34.68197
G1 X99.066 Y95.550 E34.88062
G1 X99.638 Y95.030 E34.97308
G1 X100.924 Y93.978 E35.17179
G1 X101.547 Y93.520 E35.26427
G0 F9000 X103.792 Y92.571
G1 F900 X105.308 Y91.790 E35.46823
G1 X105.377 Y91.755 E35.47748
G1 X106.034 Y91.463 E35.56347
G1 X107.513 Y90.895 E35.75295
G1 X107.558 Y90.878 E35.75871
G1 X108.283 Y90.641 E35.84993
G1 X109.813 Y90.231 E36.03938
G1 X110.500 Y90.083 E36.12343
G1 X112.091 Y89.824 E36.31622
G1 X112.161 Y89.812 E36.32471
G1 X112.979 Y89.721 E36.42315
G1 X114.561 Y89.639 E36.61261
G1 X114.561 Y89.640 E36.61273
G1 X115.367 Y89.635 E36.70913
G1 X116.945 Y89.718 E36.89812
G1 X116.945 Y89.717 E36.89824
G1 X117.022 Y89.721 E36.90746
G1 X117.750 Y89.798 E36.99501
G1 X119.404 Y90.059 E37.19528
G1 X119.480 Y90.072 E37.20450
G1 X120.112 Y90.211 E37.28189
G1 X121.642 Y90.621 E37.47134
G1 X122.307 Y90.835 E37.55489
G1 X123.921 Y91.446 E37.76129
G1 X123.993 Y91.474 E37.77053
G1 X124.632 Y91.760 E37.85426
G1 X126.035 Y92.474 E38.04254
G1 X126.104 Y92.509 E38.05179
G1 X126.749 Y92.881 E38.14085
G1 X128.078 Y93.744 E38.33037
G1 X128.130 Y93.778 E38.33780
G1 X128.737 Y94.217 E38.42739
G1 X129.968 Y95.214 E38.61685
G1 X130.489 Y95.681 E38.70053
G1 X131.669 Y96.850 E38.89919
G1 X132.160 Y97.391 E38.98656
G1 X133.212 Y98.677 E39.18528
G1 X133.645 Y99.267 E39.27280
G1 X134.557 Y100.656 E39.47154
G1 X134.929 Y101.292 E39.55966
G1 X135.710 Y102.808 E39.76362
G1 X135.745 Y102.877 E39.77287
G1 X136.037 Y103.534 E39.85886
G1 X136.605 Y105.013 E40.04835
G1 X136.622 Y105.058 E40.05410
G1 X136.859 Y105.783 E40.14532
G1 X137.269 Y107.313 E40.33477
G1 X137.417 Y108.000 E40.41882
G1 X137.675 Y109.585 E40.61088
G1 X137.688 Y109.661 E40.62010
G1 X137.779 Y110.479 E40.71854
G1 X137.861 Y112.061 E40.90800
G1 X137.860 Y112.061 E40.90812
G1 X137.865 Y112.867 E41.00452
G1 X137.782 Y114.445 E41.19351
G1 X137.783 Y114.445 E41.19363
G1 X137.779 Y114.522 E41.20285
G1 X137.702 Y115.250 E41.29040
G1 X137.441 Y116.904 E41.49067
G1 X137.428 Y116.980 E41.49989
G1 X137.289 Y117.612 E41.57728
G1 X136.879 Y119.142 E41.76673
G1 X136.665 Y119.807 E41.85028
G1 X136.054 Y121.421 E42.05668
G1 X136.026 Y121.493 E42.06592
G1 X135.740 Y122.132 E42.14965
G1 X135.021 Y123.544 E42.33916
G1 X134.991 Y123.604 E42.34718
G1 X134.619 Y124.249 E42.43624
G1 X133.756 Y125.578 E42.62576
G1 X133.722 Y125.630 E42.63319
G1 X133.283 Y126.237 E42.72278
G1 X132.286 Y127.468 E42.91224
G1 X131.819 Y127.989 E42.99592
G1 X130.650 Y129.169 E43.19458
G1 X130.109 Y129.660 E43.28195
G1 X128.823 Y130.712 E43.48067
G1 X128.233 Y131.145 E43.56820
G1 X126.844 Y132.057 E43.76693
G1 X126.208 Y132.429 E43.85505
G1 X124.692 Y133.210 E44.05901
G1 X124.623 Y133.245 E44.06826
G1 X123.966 Y133.537 E44.15425
G1 X122.487 Y134.105 E44.34374
G1 X122.442 Y134.122 E44.34949
G1 X121.717 Y134.359 E44.44071
G1 X120.187 Y134.769 E44.63016
G1 X119.500 Y134.917 E44.71421
G1 X117.915 Y135.175 E44.90627
G1 X117.839 Y135.188 E44.91549
G1 X117.024 Y135.278 E45.01356
G1 X115.146 Y135.372 E45.23845
G1 X115.085 Y135.373 E45.24574
G1 X114.608 Y135.365 E45.30280
G1 X113.025 Y135.283 E45.49238
G1 X112.309 Y135.209 E45.57847
G1 X110.596 Y134.941 E45.78584
G1 X110.520 Y134.928 E45.79506
G1 X109.888 Y134.789 E45.87245
G1 X108.358 Y134.379 E46.06190
G1 X107.693 Y134.165 E46.14545
G1 X106.079 Y133.554 E46.35185
G1 X106.007 Y133.526 E46.36109
G1 X105.368 Y133.240 E46.44482
G1 X103.965 Y132.526 E46.63310
G1 X103.896 Y132.491 E46.64235
G1 X103.251 Y132.119 E46.73141
G1 X101.922 Y131.256 E46.92093
G1 X101.870 Y131.222 E46.92836
G1 X101.263 Y130.783 E47.01795
G1 X100.032 Y129.786 E47.20741
G1 X99.511 Y129.319 E47.29109
G1 X98.331 Y128.150 E47.48975
G1 X97.840 Y127.609 E47.57712
G1 X96.788 Y126.323 E47.77584
G1 X96.355 Y125.733 E47.86337
G1 X95.443 Y124.344 E48.06210
G1 X95.071 Y123.708 E48.15022
G1 X94.290 Y122.192 E48.35418
G1 X94.255 Y122.123 E48.36343
G1 X93.963 Y121.466 E48.44942
G1 X93.395 Y119.987 E48.63891
G1 X93.378 Y119.942 E48.64466
G1 X93.141 Y119.217 E48.73588
G1 X92.731 Y117.687 E48.92533
G1 X92.583 Y117.000 E49.00938
G1 X92.316 Y115.360 E49.20811
G1 X92.312 Y115.339 E49.21066
G1 X92.221 Y114.521 E49.30910
G1 X92.139 Y112.939 E49.49856
G1 X92.140 Y112.939 E49.49868
G1 X92.135 Y112.133 E49.59508
G1 X92.218 Y110.555 E49.78407
G1 X92.217 Y110.555 E49.78419
G1 X92.221 Y110.478 E49.79341
G1 X92.298 Y109.750 E49.88096
G1 X92.559 Y108.096 E50.08123
G1 X92.572 Y108.020 E50.09045
G1 X92.711 Y107.388 E50.16785
G1 X93.121 Y105.858 E50.35729
G1 X93.335 Y105.193 E50.44084
G1 X93.946 Y103.579 E50.64724
G1 X93.974 Y103.507 E50.65648
G1 X94.260 Y102.868 E50.74021
G1 X94.979 Y101.456 E50.92972
G1 X95.009 Y101.396 E50.93775
G1 X95.381 Y100.751 E51.02680
G1 X96.244 Y99.422 E51.21632
G1 X96.278 Y99.370 E51.22375
G1 X96.717 Y98.763 E51.31334
G1 X97.714 Y97.532 E51.50280
G1 X98.181 Y97.011 E51.58648
G1 X99.350 Y95.831 E51.78514
G1 X99.891 Y95.340 E51.87252
G1 X101.177 Y94.288 E52.07123
G1 X101.767 Y93.855 E52.15876
G1 X103.156 Y92.943 E52.35749
G1 X103.792 Y92.571 E52.44561
G0 F9000 X106.178 Y91.837
G1 F900 X107.657 Y91.269 E52.63510
G1 X107.703 Y91.251 E52.64100
G1 X108.387 Y91.027 E52.72708
G1 X109.917 Y90.617 E52.91653
G1 X110.564 Y90.478 E52.99568
G1 X112.152 Y90.219 E53.18811
G1 X112.228 Y90.206 E53.19733
G1 X112.999 Y90.121 E53.29010
G1 X114.536 Y90.041 E53.47418
G1 X114.572 Y90.039 E53.47849
G1 X115.346 Y90.034 E53.57106
G1 X116.928 Y90.117 E53.76053
G1 X117.001 Y90.121 E53.76927
G1 X117.688 Y90.193 E53.85189
G1 X119.337 Y90.453 E54.05154
G1 X119.413 Y90.466 E54.06077
G1 X120.008 Y90.597 E54.13363
G1 X121.538 Y91.007 E54.32308
G1 X122.166 Y91.209 E54.40198
G1 X123.776 Y91.819 E54.60789
G1 X123.848 Y91.847 E54.61713
G1 X124.451 Y92.117 E54.69615
G1 X125.854 Y92.831 E54.88442
G1 X125.923 Y92.866 E54.89368
G1 X126.531 Y93.217 E54.97764
G1 X127.848 Y94.072 E55.16544
G1 X127.913 Y94.114 E55.17469
G1 X128.485 Y94.528 E55.25914
G1 X129.716 Y95.525 E55.44860
G1 X130.207 Y95.965 E55.52745
G1 X131.387 Y97.134 E55.72611
G1 X131.850 Y97.644 E55.80849
G1 X132.902 Y98.930 E56.00721
G1 X133.311 Y99.487 E56.08985
G1 X134.223 Y100.876 E56.28859
G1 X134.573 Y101.475 E56.37156
G1 X135.353 Y102.989 E56.57525
G1 X135.388 Y103.058 E56.58451
G1 X135.663 Y103.678 E56.66562
